logo/mastercard.svg

<svg xmlns="http://www.w3.org/2000/svg" fill="none" viewBox="0 0 780 500"><path fill="#FF5A00" d="M465.738 113.525H313.812v272.95h151.926v-272.95Z"/><path fill="#EB001B" d="M323.926 250c0-55.455 26.07-104.674 66.074-136.475-29.441-23.1481-66.58-37.1383-107.09-37.1383-95.965 0-173.613 77.6483-173.613 173.6133s77.648 173.614 173.613 173.614c40.51 0 77.649-13.991 107.09-37.139-40.06-31.352-66.074-81.02-66.074-136.475Z"/><path fill="#F79E1B" d="M670.711 250c0 95.965-77.649 173.614-173.613 173.614-40.51 0-77.649-13.991-107.09-37.139 40.51-31.857 66.074-81.02 66.074-136.475s-26.07-104.674-66.074-136.475c29.385-23.1481 66.524-37.1383 107.033-37.1383 96.021 0 173.67 78.1543 173.67 173.6133Z"/></svg>

<svg width="780" height="500" viewBox="0 0 780 500" fill="none" xmlns="http://www.w3.org/2000/svg">
<path d="M465.738 113.525H313.812V386.475H465.738V113.525Z" fill="#FF5A00"/>
<path d="M323.926 250C323.926 194.545 349.996 145.326 390 113.525C360.559 90.3769 323.42 76.3867 282.91 76.3867C186.945 76.3867 109.297 154.035 109.297 250C109.297 345.965 186.945 423.614 282.91 423.614C323.42 423.614 360.559 409.623 390 386.475C349.94 355.123 323.926 305.455 323.926 250Z" fill="#EB001B"/>
<path d="M670.711 250C670.711 345.965 593.062 423.614 497.098 423.614C456.588 423.614 419.449 409.623 390.008 386.475C430.518 354.618 456.082 305.455 456.082 250C456.082 194.545 430.012 145.326 390.008 113.525C419.393 90.3769 456.532 76.3867 497.041 76.3867C593.062 76.3867 670.711 154.541 670.711 250Z" fill="#F79E1B"/>
</svg>
